public/n/WalletSelected.svg

<svg fill="none" height="44" viewBox="0 0 94 44" width="94" xmlns="http://www.w3.org/2000/svg"><circle cx="47" cy="17" fill="#ff0707" r="9"/><path d="m47.0017 26.5c-1.314 0-2.549-.2493-3.7052-.748s-2.1618-1.1754-3.017-2.0302c-.8552-.8549-1.5323-1.8601-2.0313-3.0158-.4988-1.1557-.7482-2.3904-.7482-3.7043 0-1.314.2493-2.549.748-3.7052s1.1754-2.1618 2.0303-3.017c.8548-.85517 1.86-1.53225 3.0157-2.03125 1.1557-.49883 2.3904-.74825 3.7043-.74825 1.314 0 2.549.24933 3.7052.748s2.1618 1.17542 3.017 2.0303c.8552.8548 1.5323 1.86 2.0313 3.0157.4988 1.1557.7482 2.3904.7482 3.7043 0 1.314-.2493 2.549-.748 3.7052s-1.1754 2.1618-2.0302 3.017c-.8549.8552-1.8601 1.5323-3.0158 2.0313-1.1557.4988-2.3904.7482-3.7043.7482zm-.0017-1.5c2.2333 0 4.125-.775 5.675-2.325s2.325-3.4417 2.325-5.675-.775-4.125-2.325-5.675-3.4417-2.325-5.675-2.325-4.125.775-5.675 2.325-2.325 3.4417-2.325 5.675.775 4.125 2.325 5.675 3.4417 2.325 5.675 2.325z" fill="#ff7b7b"/><path d="m50.3095 22.3944h-1.8423l-4.0037-4.3443v-1.2827h2.0767c.586 0 1.0575-.1433 1.4145-.4298.3572-.2865.5794-.6573.6665-1.1125h-5.579v-.9922h5.554c-.1-.4194-.3244-.7565-.6732-1.0115-.3487-.2552-.7942-.3828-1.3365-.3828h-3.5443v-1.1462h7.9155v.9922h-1.8557c.2217.2167.4062.4536.5537.7108.1475.257.2458.5361.2948.8375h1.0072v.9922h-.9807c-.1078.7847-.4639 1.4392-1.0683 1.9635-.6045.5244-1.376.7865-2.3145.7865h-.25l-.025.0733 4 4.271z" fill="#fff"/><path d="m19 0h56c0 1.65685-1.3431 3-3 3h-50c-1.6569 0-3-1.34315-3-3z" fill="#ec2300"/></svg>

<svg width="94" height="44" viewBox="0 0 94 44" fill="none" xmlns="http://www.w3.org/2000/svg">
<circle cx="47" cy="17" r="9" fill="#FF0707"/>
<path d="M47.0017 26.5C45.6877 26.5 44.4527 26.2507 43.2965 25.752C42.1403 25.2533 41.1347 24.5766 40.2795 23.7218C39.4243 22.8669 38.7472 21.8617 38.2482 20.706C37.7494 19.5503 37.5 18.3156 37.5 17.0017C37.5 15.6877 37.7493 14.4527 38.248 13.2965C38.7467 12.1403 39.4234 11.1347 40.2783 10.2795C41.1331 9.42433 42.1383 8.74725 43.294 8.24825C44.4497 7.74942 45.6844 7.5 46.9983 7.5C48.3123 7.5 49.5473 7.74933 50.7035 8.248C51.8597 8.74667 52.8653 9.42342 53.7205 10.2783C54.5757 11.1331 55.2528 12.1383 55.7518 13.294C56.2506 14.4497 56.5 15.6844 56.5 16.9983C56.5 18.3123 56.2507 19.5473 55.752 20.7035C55.2533 21.8597 54.5766 22.8653 53.7218 23.7205C52.8669 24.5757 51.8617 25.2528 50.706 25.7518C49.5503 26.2506 48.3156 26.5 47.0017 26.5ZM47 25C49.2333 25 51.125 24.225 52.675 22.675C54.225 21.125 55 19.2333 55 17C55 14.7667 54.225 12.875 52.675 11.325C51.125 9.775 49.2333 9 47 9C44.7667 9 42.875 9.775 41.325 11.325C39.775 12.875 39 14.7667 39 17C39 19.2333 39.775 21.125 41.325 22.675C42.875 24.225 44.7667 25 47 25Z" fill="#FF7B7B"/>
<path d="M50.3095 22.3944H48.4672L44.4635 18.0501V16.7674H46.5402C47.1262 16.7674 47.5977 16.6241 47.9547 16.3376C48.3119 16.0511 48.5341 15.6803 48.6212 15.2251H43.0422V14.2329H48.5962C48.4962 13.8135 48.2718 13.4764 47.923 13.2214C47.5743 12.9662 47.1288 12.8386 46.5865 12.8386H43.0422V11.6924H50.9577V12.6846H49.102C49.3237 12.9013 49.5082 13.1382 49.6557 13.3954C49.8032 13.6524 49.9015 13.9315 49.9505 14.2329H50.9577V15.2251H49.977C49.8692 16.0098 49.5131 16.6643 48.9087 17.1886C48.3042 17.713 47.5327 17.9751 46.5942 17.9751H46.3442L46.3192 18.0484L50.3192 22.3194L50.3095 22.3944Z" fill="white"/>
<path d="M19 0H75V0C75 1.65685 73.6569 3 72 3H22C20.3431 3 19 1.65685 19 0V0Z" fill="#EC2300"/>
</svg>
